modules/feathericon/icons/check-verified.svg

<?xml version="1.0" encoding="UTF-8"?>
<svg width="24px" height="24px" viewBox="0 0 24 24" version="1.1" xmlns="http://www.w3.org/2000/svg" xmlns:xlink="http://www.w3.org/1999/xlink">
    <!-- Generator: sketchtool 52.2 (67145) - http://www.bohemiancoding.com/sketch -->
    <title>check-verified</title>
    <desc>Created with sketchtool.</desc>
    <g id="web-app" stroke="none" stroke-width="1" fill="none" fill-rule="evenodd">
        <g id="check-verified" fill="#000000">
            <path d="M4.25203497,14 L4,14 C2.8954305,14 2,13.1045695 2,12 C2,10.8954305 2.8954305,10 4,10 L4.25203497,10 C4.44096432,9.26595802 4.73145639,8.57268879 5.10763818,7.9360653 L4.92893219,7.75735931 C4.1478836,6.97631073 4.1478836,5.70998077 4.92893219,4.92893219 C5.70998077,4.1478836 6.97631073,4.1478836 7.75735931,4.92893219 L7.9360653,5.10763818 C8.57268879,4.73145639 9.26595802,4.44096432 10,4.25203497 L10,4 C10,2.8954305 10.8954305,2 12,2 C13.1045695,2 14,2.8954305 14,4 L14,4.25203497 C14.734042,4.44096432 15.4273112,4.73145639 16.0639347,5.10763818 L16.2426407,4.92893219 C17.0236893,4.1478836 18.2900192,4.1478836 19.0710678,4.92893219 C19.8521164,5.70998077 19.8521164,6.97631073 19.0710678,7.75735931 L18.8923618,7.9360653 C19.2685436,8.57268879 19.5590357,9.26595802 19.747965,10 L20,10 C21.1045695,10 22,10.8954305 22,12 C22,13.1045695 21.1045695,14 20,14 L19.747965,14 C19.5590357,14.734042 19.2685436,15.4273112 18.8923618,16.0639347 L19.0710678,16.2426407 C19.8521164,17.0236893 19.8521164,18.2900192 19.0710678,19.0710678 C18.2900192,19.8521164 17.0236893,19.8521164 16.2426407,19.0710678 L16.0639347,18.8923618 C15.4273112,19.2685436 14.734042,19.5590357 14,19.747965 L14,20 C14,21.1045695 13.1045695,22 12,22 C10.8954305,22 10,21.1045695 10,20 L10,19.747965 C9.26595802,19.5590357 8.57268879,19.2685436 7.9360653,18.8923618 L7.75735931,19.0710678 C6.97631073,19.8521164 5.70998077,19.8521164 4.92893219,19.0710678 C4.1478836,18.2900192 4.1478836,17.0236893 4.92893219,16.2426407 L5.10763818,16.0639347 C4.73145639,15.4273112 4.44096432,14.734042 4.25203497,14 Z M9,10 L7,12 L11,16 L17,10 L15,8 L11,12 L9,10 Z" id="Shape"></path>
        </g>
    </g>
</svg>

<svg width="24" height="24" viewBox="0 0 24 24" xmlns="http://www.w3.org/2000/svg"><path d="M4.252 14H4a2 2 0 1 1 0-4h.252c.189-.734.48-1.427.856-2.064l-.18-.179a2 2 0 1 1 2.83-2.828l.178.179A7.952 7.952 0 0 1 10 4.252V4a2 2 0 1 1 4 0v.252c.734.189 1.427.48 2.064.856l.179-.18a2 2 0 1 1 2.828 2.83l-.179.178c.377.637.667 1.33.856 2.064H20a2 2 0 1 1 0 4h-.252a7.952 7.952 0 0 1-.856 2.064l.18.179a2 2 0 1 1-2.83 2.828l-.178-.179a7.952 7.952 0 0 1-2.064.856V20a2 2 0 1 1-4 0v-.252a7.952 7.952 0 0 1-2.064-.856l-.179.18a2 2 0 1 1-2.828-2.83l.179-.178A7.952 7.952 0 0 1 4.252 14zM9 10l-2 2 4 4 6-6-2-2-4 4-2-2z" fill="#000" fill-rule="evenodd"/></svg>
